X: 6204
%
T: Midsummer's Night (reel)
C: V.Broderick
B: "The Turoe Stone" 6.2
M: 4/4
L: 1/8
Q: 360
F: http://www.capeirish.com/webabc/collections/turoe/turoe-tunes.html#6204
R: reel
K: Ador
e2dB A2AG|EGDG EGDd|e2dB A2Bd|eaag edeg|
e2dB A2AG|EGDG EGDE|G2GA BGBd|gedB BAAB :|
G2GA BGBd|g2ga baga|bage dGBd|e2ge edBA|
G2GA BGBd|g2ga baga|bage dGBd|egdB BAA2 :|

composer: Vincent Broderick
